X:1
T: Carron Water
C:
R:Strathspey
Q: 128
K:A
M:4/4
L:1/16
|:E3e dcBA G3A F3A|E3e dcBA GB3 B3c|E3e dcBA G3A F3A|((3G2A2B2) E3G A4-A4|
E3e dcBA G3A F3A|E3e dcBA GB3 B3c|E3e dcBA G3A F3A|((3G2A2B2) E3G A4-A2d2|
c3e A3e fedc BAGF|E3e d3e c3e B3e|((3^d2e2f2) ((3e2f2g2) ((3f2g2a2) ((3g2a2b2) |((3g2e2g2) ((3f2^d2f2) e6=d2|
c3a B3g A3f G3e|((3F2G2A2) ((3B2c2d2) ((3e2f2e2) ((3d2c2B2) |((3A2a2g2) ((3G2g2f2) ((3F2f2e2) ((3E2e2d2) |((3c2A2c2) ((3B2G2B2) ((3A2F2E2) ((3D2C2B,2) :|
